; generated by Slic3r 1.0.1 on 2014-05-28 at 21:57:45

; layer_height = 0.25
; perimeters = 4
; top_solid_layers = 3
; bottom_solid_layers = 3
; fill_density = 0.33
; perimeter_speed = 23
; infill_speed = 46
; travel_speed = 65
; nozzle_diameter = 0.35
; filament_diameter = 1.75
; extrusion_multiplier = 1
; perimeters extrusion width = 0.35mm
; infill extrusion width = 0.39mm
; solid infill extrusion width = 0.39mm
; top infill extrusion width = 0.39mm
; support material extrusion width = 0.35mm
; first layer extrusion width = 0.70mm

G21 ; set units to millimeters
M107
M190 S110 ; wait for bed temperature to be reached
M104 S230 ; set temperature
G28 ; home all axes
M109 S230 ; wait for temperature to be reached
G90 ; use absolute coordinates
G92 E0
M82 ; use absolute distances for extrusion
G1 F1800.000 E-1.00000
G92 E0
G1 Z0.350 F3900.000
G1 X43.700 Y84.760 F3900.000
G1 E1.00000 F1800.000
G1 X44.980 Y84.200 E1.12704 F414.000
G1 X80.460 Y72.810 E4.51539
G1 X81.110 Y72.640 E4.57648
G1 X84.100 Y72.010 E4.85433
G1 X84.780 Y71.900 E4.91697
G1 X85.470 Y71.870 E4.97977
G1 X88.520 Y71.870 E5.25710
G1 X89.210 Y71.900 E5.31990
G1 X89.890 Y72.010 E5.38254
G1 X92.880 Y72.640 E5.66039
G1 X93.530 Y72.810 E5.72148
G1 X129.020 Y84.200 E9.11069
G1 X130.300 Y84.760 E9.23773
G1 X131.420 Y85.580 E9.36395
G1 X132.350 Y86.610 E9.49014
G1 X133.050 Y87.810 E9.61646
G1 X133.480 Y89.130 E9.74270
G1 X133.620 Y90.510 E9.86882
G1 X133.620 Y95.510 E10.32347
G1 X133.460 Y96.960 E10.45612
G1 X132.990 Y98.340 E10.58868
G1 X132.220 Y99.580 E10.72140
G1 X131.200 Y100.630 E10.85451
G1 X129.980 Y101.430 E10.98717
G1 X128.610 Y101.940 E11.12009
G1 X122.630 Y103.440 E11.68070
G1 X121.830 Y103.580 E11.75455
G1 X121.020 Y103.630 E11.82834
G1 X52.960 Y103.630 E18.01701
G1 X52.150 Y103.580 E18.09080
G1 X51.340 Y103.430 E18.16571
G1 X45.380 Y101.930 E18.72455
G1 X44.020 Y101.420 E18.85662
G1 X42.790 Y100.630 E18.98955
G1 X41.780 Y99.580 E19.12202
G1 X41.010 Y98.340 E19.25475
G1 X40.540 Y96.960 E19.38731
G1 X40.380 Y95.510 E19.51996
G1 X40.380 Y90.510 E19.97460
G1 X40.520 Y89.130 E20.10073
G1 X40.950 Y87.810 E20.22696
G1 X41.650 Y86.610 E20.35329
G1 X42.580 Y85.580 E20.47947
G1 X43.624 Y84.815 E20.59717
G1 F1800.000 E19.59717
G92 E0
G1 X46.871 Y90.198 F3900.000
G1 E1.00000 F1800.000
G1 X51.932 Y90.198 E1.46023 F414.000
G1 X52.298 Y89.832 E1.50730
G1 X52.298 Y89.034 E1.57979
G1 X52.481 Y88.851 E1.60332
G1 X61.509 Y88.851 E2.42422
G1 X61.692 Y89.034 E2.44776
G1 X61.692 Y89.832 E2.52025
G1 X62.058 Y90.198 E2.56732
G1 X72.067 Y90.198 E3.47743
G1 X72.396 Y89.959 E3.51436
G1 X73.383 Y86.930 E3.80409
G1 X74.926 Y84.258 E4.08461
G1 X77.034 Y81.917 E4.37104
G1 X79.530 Y80.104 E4.65156
G1 X82.376 Y78.833 E4.93503
G1 X85.425 Y78.181 E5.21851
G1 X88.542 Y78.178 E5.50199
G1 X91.624 Y78.833 E5.78843
G1 X94.470 Y80.104 E6.07190
G1 X96.966 Y81.917 E6.35242
G1 X99.074 Y84.258 E6.63886
G1 X100.617 Y86.930 E6.91938
G1 X101.604 Y89.959 E7.20910
G1 X101.933 Y90.198 E7.24603
G1 X111.932 Y90.198 E8.15524
G1 X112.298 Y89.832 E8.20231
G1 X112.298 Y89.034 E8.27479
G1 X112.481 Y88.851 E8.29833
G1 X121.509 Y88.851 E9.11923
G1 X121.692 Y89.034 E9.14277
G1 X121.692 Y89.832 E9.21525
G1 X122.058 Y90.198 E9.26232
G1 X127.129 Y90.198 E9.72346
G1 X127.312 Y90.381 E9.74700
G1 X127.312 Y95.639 E10.22518
G1 X127.129 Y95.822 E10.24872
G1 X122.058 Y95.822 E10.70986
G1 X121.692 Y96.188 E10.75693
G1 X121.692 Y97.492 E10.87545
G1 X121.509 Y97.675 E10.89898
G1 X112.481 Y97.675 E11.71988
G1 X112.298 Y97.492 E11.74342
G1 X112.298 Y96.188 E11.86193
G1 X111.932 Y95.822 E11.90900
G1 X96.571 Y95.822 E13.30581
G1 X96.388 Y95.639 E13.32935
G1 X96.388 Y93.812 E13.49554
G1 X96.305 Y93.595 E13.51660
G1 X96.233 Y93.516 E13.52636
G1 X96.282 Y92.977 E13.57553
G1 X96.073 Y91.048 E13.75198
G1 X95.493 Y89.264 E13.92251
G1 X94.529 Y87.580 E14.09897
G1 X93.235 Y86.134 E14.27542
G1 X91.613 Y84.955 E14.45780
G1 X89.837 Y84.172 E14.63425
G1 X87.938 Y83.775 E14.81071
G1 X85.997 Y83.782 E14.98716
G1 X84.085 Y84.199 E15.16513
G1 X82.330 Y84.988 E15.34004
G1 X80.813 Y86.090 E15.51057
G1 X79.510 Y87.527 E15.68702
G1 X78.533 Y89.205 E15.86348
G1 X77.927 Y91.048 E16.03993
G1 X77.718 Y92.977 E16.21638
G1 X77.767 Y93.516 E16.26555
G1 X77.695 Y93.595 E16.27532
G1 X77.612 Y93.812 E16.29638
G1 X77.612 Y95.639 E16.46257
G1 X77.429 Y95.822 E16.48611
G1 X62.058 Y95.822 E17.88382
G1 X61.692 Y96.188 E17.93089
G1 X61.692 Y97.492 E18.04941
G1 X61.509 Y97.675 E18.07294
G1 X52.481 Y97.675 E18.89384
G1 X52.298 Y97.492 E18.91738
G1 X52.298 Y96.188 E19.03589
G1 X51.932 Y95.822 E19.08296
G1 X46.871 Y95.822 E19.54320
G1 X46.688 Y95.639 E19.56673
G1 X46.688 Y90.381 E20.04492
G1 X46.804 Y90.264 E20.05993
G1 X47.350 Y90.860 F3900.000
G1 X72.978 Y90.860 E22.39027 F289.800
G1 X73.063 Y90.048 E22.46455
G1 X73.984 Y87.215 E22.73539
G1 X75.473 Y84.635 E23.00624
G1 X77.466 Y82.422 E23.27709
G1 X79.876 Y80.671 E23.54794
G1 X82.597 Y79.459 E23.81878
G1 X85.511 Y78.840 E24.08963
G1 X88.489 Y78.840 E24.36048
G1 X91.403 Y79.459 E24.63133
G1 X94.124 Y80.671 E24.90218
G1 X96.534 Y82.422 E25.17302
G1 X98.527 Y84.635 E25.44387
G1 X100.016 Y87.215 E25.71472
G1 X100.937 Y90.048 E25.98557
G1 X101.022 Y90.860 E26.05984
G1 X126.650 Y90.860 E28.39018
G1 X126.650 Y95.160 E28.78118
G1 X97.050 Y95.160 E31.47270
G1 X97.050 Y93.060 E31.66365
G1 X96.957 Y93.060 E31.67209
G1 X96.734 Y90.941 E31.86584
G1 X96.092 Y88.962 E32.05502
G1 X95.051 Y87.160 E32.24420
G1 X93.659 Y85.614 E32.43338
G1 X91.976 Y84.391 E32.62256
G1 X90.075 Y83.545 E32.81174
G1 X88.040 Y83.113 E33.00093
G1 X85.960 Y83.113 E33.19011
G1 X83.925 Y83.545 E33.37929
G1 X82.024 Y84.391 E33.56847
G1 X80.341 Y85.614 E33.75765
G1 X78.949 Y87.160 E33.94683
G1 X77.908 Y88.962 E34.13601
G1 X77.266 Y90.941 E34.32519
G1 X77.043 Y93.060 E34.51894
G1 X76.950 Y93.060 E34.52738
G1 X76.950 Y95.160 E34.71834
G1 X47.350 Y95.160 E37.40985
G1 X47.350 Y90.954 E37.79232
G1 X47.891 Y91.172 F3900.000
G1 X47.975 Y91.485 F3900.000
G1 X73.541 Y91.485 E40.11702 F414.000
G1 X73.678 Y90.178 E40.23648
G1 X74.558 Y87.470 E40.49538
G1 X75.981 Y85.005 E40.75429
G1 X77.887 Y82.889 E41.01319
G1 X80.190 Y81.215 E41.27209
G1 X82.791 Y80.057 E41.53099
G1 X85.576 Y79.465 E41.78990
G1 X88.424 Y79.465 E42.04880
G1 X91.209 Y80.057 E42.30771
G1 X93.810 Y81.215 E42.56661
G1 X96.113 Y82.889 E42.82552
G1 X98.019 Y85.005 E43.08442
G1 X99.442 Y87.470 E43.34333
G1 X100.322 Y90.178 E43.60222
G1 X100.459 Y91.485 E43.72169
G1 X126.025 Y91.485 E46.04638
G1 X126.025 Y94.535 E46.32374
G1 X97.675 Y94.535 E48.90161
G1 X97.675 Y92.435 E49.09256
G1 X97.520 Y92.435 E49.10666
G1 X97.349 Y90.810 E49.25522
G1 X96.666 Y88.707 E49.45635
G1 X95.560 Y86.791 E49.65747
G1 X94.080 Y85.147 E49.85860
G1 X92.290 Y83.847 E50.05972
G1 X90.270 Y82.948 E50.26084
G1 X88.106 Y82.488 E50.46197
G1 X85.894 Y82.488 E50.66310
G1 X83.731 Y82.948 E50.86422
G1 X81.710 Y83.847 E51.06535
G1 X79.920 Y85.147 E51.26647
G1 X78.440 Y86.791 E51.46760
G1 X77.334 Y88.707 E51.66872
G1 X76.651 Y90.810 E51.86985
G1 X76.480 Y92.435 E52.01841
G1 X76.325 Y92.435 E52.03251
G1 X76.325 Y94.535 E52.22346
G1 X47.975 Y94.535 E54.80133
G1 X47.975 Y91.579 E55.07017
G1 X48.600 Y92.110 F3900.000
G1 X74.103 Y92.110 E57.38921 F414.000
G1 X74.292 Y90.309 E57.55387
G1 X75.132 Y87.726 E57.80081
G1 X76.490 Y85.374 E58.04778
G1 X78.307 Y83.356 E58.29474
G1 X80.504 Y81.759 E58.54170
G1 X82.985 Y80.654 E58.78865
G1 X85.642 Y80.090 E59.03561
G1 X88.358 Y80.090 E59.28257
G1 X91.015 Y80.654 E59.52954
G1 X93.496 Y81.759 E59.77649
G1 X95.693 Y83.356 E60.02345
G1 X97.510 Y85.374 E60.27041
G1 X98.868 Y87.726 E60.51737
G1 X99.708 Y90.309 E60.76432
G1 X99.897 Y92.110 E60.92898
G1 X125.400 Y92.110 E63.24802
G1 X125.400 Y93.910 E63.41174
G1 X98.300 Y93.910 E65.87597
G1 X98.300 Y91.810 E66.06692
G1 X98.082 Y91.810 E66.08668
G1 X97.964 Y90.680 E66.19005
G1 X97.240 Y88.451 E66.40312
G1 X96.068 Y86.422 E66.61619
G1 X94.500 Y84.680 E66.82926
G1 X92.604 Y83.303 E67.04233
G1 X90.464 Y82.350 E67.25539
G1 X88.172 Y81.863 E67.46847
G1 X85.828 Y81.863 E67.68153
G1 X83.536 Y82.350 E67.89460
G1 X81.396 Y83.303 E68.10767
G1 X79.500 Y84.680 E68.32074
G1 X77.932 Y86.422 E68.53381
G1 X76.760 Y88.451 E68.74688
G1 X76.036 Y90.680 E68.95995
G1 X75.918 Y91.810 E69.06332
G1 X75.700 Y91.810 E69.08308
G1 X75.700 Y93.910 E69.27403
G1 X48.600 Y93.910 E71.73827
G1 X48.600 Y92.204 E71.89346
G1 X49.670 Y92.762 F3900.000
G1 X50.166 Y93.258 E71.95789 F360.000
G1 X50.564 Y92.762 E72.01632 F360.000
G1 X51.059 Y93.258 E72.08076 F360.000
G1 X51.457 Y92.762 E72.13919 F360.000
G1 X51.953 Y93.258 E72.20363 F360.000
G1 X52.351 Y92.762 E72.26206 F360.000
G1 X52.846 Y93.258 E72.32649 F360.000
G1 X53.244 Y92.762 E72.38493 F360.000
G1 X53.740 Y93.258 E72.44936 F360.000
G1 X54.138 Y92.762 E72.50780 F360.000
G1 X54.633 Y93.258 E72.57223 F360.000
G1 X55.031 Y92.762 E72.63067 F360.000
G1 X55.527 Y93.258 E72.69510 F360.000
G1 X55.925 Y92.762 E72.75354 F360.000
G1 X56.421 Y93.258 E72.81797 F360.000
G1 X56.819 Y92.762 E72.87640 F360.000
G1 X57.314 Y93.258 E72.94084 F360.000
G1 X57.712 Y92.762 E72.99927 F360.000
G1 X58.208 Y93.258 E73.06371 F360.000
G1 X58.606 Y92.762 E73.12214 F360.000
G1 X59.101 Y93.258 E73.18657 F360.000
G1 X59.499 Y92.762 E73.24501 F360.000
G1 X59.995 Y93.258 E73.30944 F360.000
G1 X60.393 Y92.762 E73.36788 F360.000
G1 X60.888 Y93.258 E73.43231 F360.000
G1 X61.286 Y92.762 E73.49075 F360.000
G1 X61.782 Y93.258 E73.55518 F360.000
G1 X62.180 Y92.762 E73.61362 F360.000
G1 X62.675 Y93.258 E73.67805 F360.000
G1 X63.073 Y92.762 E73.73648 F360.000
G1 X63.569 Y93.258 E73.80092 F360.000
G1 X63.967 Y92.762 E73.85935 F360.000
G1 X64.462 Y93.258 E73.92379 F360.000
G1 X64.860 Y92.762 E73.98222 F360.000
G1 X65.356 Y93.258 E74.04666 F360.000
G1 X65.754 Y92.762 E74.10509 F360.000
G1 X66.250 Y93.258 E74.16952 F360.000
G1 X66.648 Y92.762 E74.22796 F360.000
G1 X67.143 Y93.258 E74.29239 F360.000
G1 X67.541 Y92.762 E74.35083 F360.000
G1 X68.037 Y93.258 E74.41526 F360.000
G1 X68.435 Y92.762 E74.47370 F360.000
G1 X68.930 Y93.258 E74.53813 F360.000
G1 X69.328 Y92.762 E74.59657 F360.000
G1 X69.824 Y93.258 E74.66100 F360.000
G1 X70.222 Y92.762 E74.71943 F360.000
G1 X70.717 Y93.258 E74.78387 F360.000
G1 X71.115 Y92.762 E74.84230 F360.000
G1 X71.611 Y93.258 E74.90674 F360.000
G1 X72.009 Y92.762 E74.96517 F360.000
G1 X72.504 Y93.258 E75.02960 F360.000
G1 X72.902 Y92.762 E75.08804 F360.000
G1 X73.398 Y93.258 E75.15247 F360.000
G1 X73.796 Y92.762 E75.21091 F360.000
G1 X74.291 Y93.258 E75.27534 F360.000
G1 X74.689 Y92.762 E75.33378 F360.000
G1 X75.048 Y93.121 E75.38037 F360.000
G1 X75.048 Y92.227 E75.46252 F360.000
G1 X74.776 Y91.955 E75.49790 F360.000
G1 X75.048 Y91.333 E75.56027 F360.000
G1 X74.861 Y91.146 E75.58461 F360.000
G1 X75.371 Y90.764 E75.64329 F360.000
G1 X74.963 Y90.356 E75.69636 F360.000
G1 X75.554 Y90.053 E75.75739 F360.000
G1 X75.182 Y89.681 E75.80570 F360.000
G1 X75.773 Y89.378 E75.86673 F360.000
G1 X75.402 Y89.007 E75.91504 F360.000
G1 X75.992 Y88.704 E75.97607 F360.000
G1 X75.621 Y88.332 E76.02439 F360.000
G1 X76.236 Y88.054 E76.08648 F360.000
G1 X75.893 Y87.711 E76.13104 F360.000
G1 X76.221 Y87.145 E76.19118 F360.000
G1 X76.563 Y87.488 E76.23574 F360.000
G1 X76.890 Y86.921 E76.29588 F360.000
G1 X76.548 Y86.579 E76.34044 F360.000
G1 X76.875 Y86.012 E76.40058 F360.000
G1 X77.217 Y86.355 E76.44514 F360.000
G1 X77.587 Y85.830 E76.50410 F360.000
G1 X77.255 Y85.499 E76.54720 F360.000
G1 X77.678 Y85.029 E76.60537 F360.000
G1 X78.010 Y85.360 E76.64847 F360.000
G1 X78.433 Y84.890 E76.70664 F360.000
G1 X78.102 Y84.559 E76.74974 F360.000
G1 X78.525 Y84.088 E76.80791 F360.000
G1 X78.857 Y84.420 E76.85101 F360.000
G1 X79.329 Y83.998 E76.90920 F360.000
G1 X78.994 Y83.663 E76.95278 F360.000
G1 X79.511 Y83.287 E77.01159 F360.000
G1 X79.846 Y83.622 E77.05517 F360.000
G1 X80.364 Y83.246 E77.11398 F360.000
G1 X80.029 Y82.911 E77.15756 F360.000
G1 X80.546 Y82.535 E77.21638 F360.000
G1 X80.881 Y82.870 E77.25996 F360.000
G1 X81.463 Y82.559 E77.32065 F360.000
G1 X81.109 Y82.204 E77.36676 F360.000
G1 X81.727 Y81.929 E77.42898 F360.000
G1 X82.082 Y82.284 E77.47509 F360.000
G1 X82.700 Y82.008 E77.53731 F360.000
G1 X82.345 Y81.654 E77.58342 F360.000
G1 X82.964 Y81.378 E77.64564 F360.000
G1 X83.318 Y81.733 E77.69175 F360.000
G1 X83.657 Y81.179 E77.75150 F360.000
G1 X84.052 Y81.573 E77.80282 F360.000
G1 X84.394 Y81.022 E77.86248 F360.000
G1 X84.789 Y81.417 E77.91380 F360.000
G1 X85.131 Y80.865 E77.97346 F360.000
G1 X85.526 Y81.260 E78.02478 F360.000
G1 X85.902 Y80.742 E78.08360 F360.000
G1 X86.370 Y81.210 E78.14447 F360.000
G1 X86.795 Y80.742 E78.20262 F360.000
G1 X87.263 Y81.210 E78.26349 F360.000
G1 X87.689 Y80.742 E78.32165 F360.000
G1 X88.157 Y81.210 E78.38252 F360.000
G1 X88.661 Y80.821 E78.44109 F360.000
G1 X89.269 Y81.429 E78.52012 F360.000
G1 X89.796 Y81.062 E78.57914 F360.000
G1 X90.404 Y81.670 E78.65816 F360.000
G1 X90.980 Y81.353 E78.71866 F360.000
G1 X91.904 Y82.277 E78.83877 F360.000
G1 X92.591 Y82.071 E78.90472 F360.000
G1 X94.114 Y83.594 E79.10275 F360.000
G1 X96.656 Y86.135 F3900.000
G1 X97.935 Y87.415 E79.26906 F360.000
G1 X97.852 Y88.225 E79.34398 F360.000
G1 X98.581 Y88.954 E79.43879 F360.000
G1 X98.282 Y89.549 E79.49997 F360.000
G1 X99.011 Y90.278 E79.59479 F360.000
G1 X98.631 Y90.792 E79.65352 F360.000
G1 X99.157 Y91.317 E79.72190 F360.000
G1 X98.952 Y92.006 E79.78794 F360.000
G1 X99.262 Y92.316 E79.82824 F360.000
G1 X99.709 Y92.762 E79.88629 F360.000
G1 X100.204 Y93.258 E79.95073 F360.000
G1 X100.602 Y92.762 E80.00916 F360.000
G1 X101.098 Y93.258 E80.07359 F360.000
G1 X101.496 Y92.762 E80.13203 F360.000
G1 X101.991 Y93.258 E80.19646 F360.000
G1 X102.389 Y92.762 E80.25490 F360.000
G1 X102.885 Y93.258 E80.31933 F360.000
G1 X103.283 Y92.762 E80.37777 F360.000
G1 X103.778 Y93.258 E80.44220 F360.000
G1 X104.176 Y92.762 E80.50063 F360.000
G1 X104.672 Y93.258 E80.56507 F360.000
G1 X105.070 Y92.762 E80.62350 F360.000
G1 X105.565 Y93.258 E80.68794 F360.000
G1 X105.963 Y92.762 E80.74637 F360.000
G1 X106.459 Y93.258 E80.81080 F360.000
G1 X106.857 Y92.762 E80.86924 F360.000
G1 X107.353 Y93.258 E80.93367 F360.000
G1 X107.751 Y92.762 E80.99211 F360.000
G1 X108.246 Y93.258 E81.05654 F360.000
G1 X108.644 Y92.762 E81.11498 F360.000
G1 X109.140 Y93.258 E81.17941 F360.000
G1 X109.538 Y92.762 E81.23785 F360.000
G1 X110.033 Y93.258 E81.30228 F360.000
G1 X110.431 Y92.762 E81.36071 F360.000
G1 X110.927 Y93.258 E81.42515 F360.000
G1 X111.325 Y92.762 E81.48358 F360.000
G1 X111.820 Y93.258 E81.54802 F360.000
G1 X112.218 Y92.762 E81.60645 F360.000
G1 X112.714 Y93.258 E81.67089 F360.000
G1 X113.112 Y92.762 E81.72932 F360.000
G1 X113.607 Y93.258 E81.79375 F360.000
G1 X114.005 Y92.762 E81.85219 F360.000
G1 X114.501 Y93.258 E81.91662 F360.000
G1 X114.899 Y92.762 E81.97506 F360.000
G1 X115.394 Y93.258 E82.03949 F360.000
G1 X115.792 Y92.762 E82.09793 F360.000
G1 X116.288 Y93.258 E82.16236 F360.000
G1 X116.686 Y92.762 E82.22080 F360.000
G1 X117.181 Y93.258 E82.28523 F360.000
G1 X117.579 Y92.762 E82.34366 F360.000
G1 X118.075 Y93.258 E82.40810 F360.000
G1 X118.473 Y92.762 E82.46653 F360.000
G1 X118.969 Y93.258 E82.53097 F360.000
G1 X119.367 Y92.762 E82.58940 F360.000
G1 X119.862 Y93.258 E82.65383 F360.000
G1 X120.260 Y92.762 E82.71227 F360.000
G1 X120.756 Y93.258 E82.77670 F360.000
G1 X121.154 Y92.762 E82.83514 F360.000
G1 X121.649 Y93.258 E82.89957 F360.000
G1 X122.047 Y92.762 E82.95801 F360.000
G1 X122.543 Y93.258 E83.02244 F360.000
G1 X122.941 Y92.762 E83.08088 F360.000
G1 X123.436 Y93.258 E83.14531 F360.000
G1 X123.834 Y92.762 E83.20375 F360.000
G1 X124.330 Y93.258 E83.26818 F360.000
G1 X124.748 Y92.782 E83.32639 F360.000
G1 X124.728 Y92.762 E83.32898 F360.000
G1 X99.311 Y93.258 F3900.000
G1 X98.952 Y92.899 E83.37559 F360.000
G1 F1800.000 E82.37559
G92 E0
G1 X49.670 Y92.762 F3900.000
G1 E1.00000 F1800.000
G1 X49.252 Y93.238 E1.05821 F360.000
G1 X49.272 Y93.258 E1.06081 F360.000
G1 F1800.000 E0.06081
G92 E0
G1 X52.960 Y89.514 F3900.000
G1 E1.00000 F1800.000
G1 X61.030 Y89.514 E1.73371 F1080.000
G1 F1800.000 E0.73371
G92 E0
G1 X61.030 Y97.012 F3900.000
G1 E1.00000 F1800.000
