; generated by Slic3r 1.0.1 on 2014-05-21 at 16:51:18

; layer_height = 0.25
; perimeters = 4
; top_solid_layers = 3
; bottom_solid_layers = 3
; fill_density = 0.35
; perimeter_speed = 23
; infill_speed = 43
; travel_speed = 65
; nozzle_diameter = 0.35
; filament_diameter = 1.75
; extrusion_multiplier = 1
; perimeters extrusion width = 0.35mm
; infill extrusion width = 0.39mm
; solid infill extrusion width = 0.39mm
; top infill extrusion width = 0.39mm
; support material extrusion width = 0.35mm
; first layer extrusion width = 0.70mm

G21 ; set units to millimeters
M107
M190 S100 ; wait for bed temperature to be reached
M104 S230 ; set temperature
G28 ; home all axes
M109 S230 ; wait for temperature to be reached
G90 ; use absolute coordinates
G92 E0
M82 ; use absolute distances for extrusion
G1 F1800.000 E-1.00000
G92 E0
G1 Z0.350 F3900.000
G1 X27.320 Y27.320 F3900.000
G1 E1.00000 F1800.000
G1 X28.320 Y26.490 E1.11817 F414.000
G1 X29.460 Y25.880 E1.23574
G1 X30.710 Y25.500 E1.35453
G1 X32.000 Y25.380 E1.47234
G1 X142.000 Y25.380 E11.47459
G1 X143.290 Y25.500 E11.59240
G1 X144.540 Y25.880 E11.71120
G1 X145.680 Y26.490 E11.82876
G1 X146.680 Y27.320 E11.94693
G1 X147.510 Y28.320 E12.06510
G1 X148.120 Y29.460 E12.18267
G1 X148.500 Y30.710 E12.30147
G1 X148.620 Y32.000 E12.41927
G1 X148.620 Y142.000 E22.42153
G1 X148.500 Y143.290 E22.53933
G1 X148.120 Y144.540 E22.65813
G1 X147.510 Y145.680 E22.77570
G1 X146.680 Y146.680 E22.89387
G1 X145.680 Y147.510 E23.01204
G1 X144.540 Y148.120 E23.12961
G1 X143.290 Y148.500 E23.24840
G1 X142.000 Y148.620 E23.36621
G1 X32.000 Y148.620 E33.36846
G1 X30.710 Y148.500 E33.48627
G1 X29.460 Y148.120 E33.60507
G1 X28.320 Y147.510 E33.72263
G1 X27.320 Y146.680 E33.84080
G1 X26.490 Y145.680 E33.95897
G1 X25.880 Y144.540 E34.07654
G1 X25.500 Y143.290 E34.19534
G1 X25.380 Y142.000 E34.31314
G1 X25.380 Y32.000 E44.31540
G1 X25.500 Y30.710 E44.43320
G1 X25.880 Y29.460 E44.55200
G1 X26.490 Y28.320 E44.66957
G1 X27.260 Y27.392 E44.77922
G1 F1800.000 E43.77922
G92 E0
G1 X31.688 Y31.871 F3900.000
G1 E1.00000 F1800.000
G1 X31.871 Y31.688 E1.02354 F414.000
G1 X142.129 Y31.688 E11.04933
G1 X142.312 Y31.871 E11.07286
G1 X142.312 Y142.129 E21.09865
G1 X142.129 Y142.312 E21.12219
G1 X31.871 Y142.312 E31.14798
G1 X31.688 Y142.129 E31.17151
G1 X31.688 Y31.964 E41.18878
G1 X32.350 Y32.350 F3900.000
G1 X141.650 Y32.350 E51.12738 F289.800
G1 X141.650 Y141.650 E61.06599
G1 X32.350 Y141.650 E71.00459
G1 X32.350 Y32.444 E80.93467
G1 X32.891 Y32.662 F3900.000
G1 X32.975 Y32.975 F3900.000
G1 X141.025 Y32.975 E90.75963 F414.000
G1 X141.025 Y141.025 E100.58459
G1 X32.975 Y141.025 E110.40955
G1 X32.975 Y33.069 E120.22599
G1 X33.600 Y33.600 F3900.000
G1 X140.400 Y33.600 E129.93731 F414.000
G1 X140.400 Y140.400 E139.64863
G1 X33.600 Y140.400 E149.35995
G1 X33.600 Y33.694 E159.06275
G1 X34.225 Y34.225 F3900.000
G1 X139.775 Y34.225 E168.66043 F414.000
G1 X139.775 Y139.775 E178.25810
G1 X34.225 Y139.775 E187.85578
G1 X34.225 Y34.318 E197.44494
G1 F1800.000 E196.44494
G92 E0
G1 X128.736 Y129.108 F3900.000
G1 E1.00000 F1800.000
G1 X130.454 Y127.923 E1.18978 F540.000
G1 X132.526 Y127.671 E1.37954
G1 X134.477 Y128.411 E1.56933
G1 X135.861 Y129.974 E1.75909
G1 X136.360 Y132.000 E1.94887
G1 X135.861 Y134.026 E2.13865
G1 X134.477 Y135.589 E2.32842
G1 X132.526 Y136.329 E2.51820
G1 X130.454 Y136.077 E2.70797
G1 X128.736 Y134.892 E2.89774
G1 X127.766 Y133.044 E3.08752
G1 X127.766 Y130.956 E3.27730
G1 X128.693 Y129.191 E3.45856
G1 X128.587 Y128.502 F3900.000
G1 X128.254 Y128.682 F3900.000
G1 X130.226 Y127.321 E3.67634 F540.000
G1 X132.603 Y127.032 E3.89412
G1 X134.843 Y127.882 E4.11191
G1 X136.431 Y129.674 E4.32969
G1 X137.004 Y132.000 E4.54748
G1 X136.431 Y134.326 E4.76526
G1 X134.843 Y136.118 E4.98304
G1 X132.603 Y136.968 E5.20084
G1 X130.226 Y136.679 E5.41861
G1 X128.254 Y135.318 E5.63640
G1 X127.141 Y133.198 E5.85418
G1 X127.141 Y130.802 E6.07198
G1 X128.211 Y128.765 E6.28124
G1 X127.558 Y128.663 F3900.000
G1 X127.773 Y128.255 E6.32319 F540.000
G1 X129.997 Y126.719 E6.56898
G1 X132.681 Y126.394 E6.81477
G1 X135.208 Y127.352 E7.06057
G1 X137.001 Y129.375 E7.30636
G1 X137.648 Y132.000 E7.55216
G1 X137.001 Y134.625 E7.79796
G1 X135.208 Y136.648 E8.04375
G1 X132.681 Y137.606 E8.28955
G1 X129.997 Y137.281 E8.53534
G1 X127.773 Y135.745 E8.78113
G1 X126.516 Y133.352 E9.02693
G1 X126.516 Y130.648 E9.27274
G1 X127.515 Y128.746 E9.46807
G1 X127.005 Y128.373 F3900.000
G1 X127.291 Y127.828 E9.52401 F540.000
G1 X129.769 Y126.118 E9.79782
G1 X132.758 Y125.755 E10.07161
G1 X135.574 Y126.822 E10.34543
G1 X137.571 Y129.076 E10.61923
G1 X138.291 Y132.000 E10.89303
G1 X137.571 Y134.924 E11.16684
G1 X135.574 Y137.178 E11.44064
G1 X132.758 Y138.245 E11.71445
G1 X129.769 Y137.882 E11.98825
G1 X127.291 Y136.172 E12.26205
G1 X125.892 Y133.506 E12.53586
G1 X125.892 Y130.494 E12.80968
G1 X126.961 Y128.456 E13.01902
G1 X89.477 Y90.589 F3900.000
G1 X87.526 Y91.329 E13.20880 F540.000
G1 X85.454 Y91.077 E13.39857
G1 X83.736 Y89.892 E13.58835
G1 X82.766 Y88.044 E13.77812
G1 X82.766 Y85.956 E13.96790
G1 X83.736 Y84.108 E14.15767
G1 X85.454 Y82.923 E14.34745
G1 X87.526 Y82.671 E14.53722
G1 X89.477 Y83.411 E14.72700
G1 X90.861 Y84.974 E14.91677
G1 X91.360 Y87.000 E15.10655
G1 X90.861 Y89.026 E15.29633
G1 X89.539 Y90.518 E15.47758
G1 X89.477 Y91.213 F3900.000
G1 X89.555 Y91.227 F3900.000
G1 X87.603 Y91.968 E15.66742 F540.000
G1 X85.226 Y91.679 E15.88521
G1 X83.254 Y90.318 E16.10299
G1 X82.141 Y88.198 E16.32078
G1 X82.141 Y85.802 E16.53856
G1 X83.254 Y83.682 E16.75635
G1 X85.226 Y82.321 E16.97413
G1 X87.603 Y82.032 E17.19192
G1 X89.555 Y82.773 E17.38176
G1 X89.843 Y82.882 E17.40970
G1 X91.431 Y84.674 E17.62749
G1 X92.004 Y87.000 E17.84528
G1 X91.431 Y89.326 E18.06306
G1 X89.843 Y91.118 E18.28085
G1 X89.643 Y91.194 E18.30027
G1 X89.777 Y91.812 F3900.000
G1 X87.681 Y92.606 E18.50412 F540.000
G1 X84.997 Y92.281 E18.74991
G1 X82.773 Y90.745 E18.99570
G1 X81.516 Y88.352 E19.24150
G1 X81.516 Y85.648 E19.48730
G1 X82.773 Y83.255 E19.73309
G1 X84.997 Y81.719 E19.97889
G1 X87.681 Y81.394 E20.22469
G1 X89.777 Y82.188 E20.42853
G1 X90.208 Y82.352 E20.47048
G1 X92.001 Y84.375 E20.71628
G1 X92.648 Y87.000 E20.96207
G1 X92.001 Y89.625 E21.20787
G1 X90.208 Y91.648 E21.45366
G1 X89.865 Y91.778 E21.48709
G1 X89.998 Y92.396 F3900.000
G1 X87.758 Y93.245 E21.70494 F540.000
G1 X84.769 Y92.882 E21.97875
G1 X82.291 Y91.172 E22.25255
G1 X80.892 Y88.506 E22.52636
G1 X80.892 Y85.494 E22.80017
G1 X82.291 Y82.828 E23.07397
G1 X84.769 Y81.118 E23.34778
G1 X87.758 Y80.755 E23.62158
G1 X89.998 Y81.604 E23.83944
G1 X90.574 Y81.822 E23.89539
G1 X92.571 Y84.076 E24.16920
G1 X93.291 Y87.000 E24.44300
G1 X92.571 Y89.924 E24.71681
G1 X90.574 Y92.178 E24.99061
G1 X90.086 Y92.363 E25.03804
G1 X128.736 Y44.892 F3900.000
G1 X127.766 Y43.044 E25.22782 F540.000
G1 X127.766 Y40.956 E25.41760
G1 X128.736 Y39.108 E25.60738
G1 X130.454 Y37.923 E25.79716
G1 X132.526 Y37.671 E25.98692
G1 X134.477 Y38.411 E26.17671
G1 X135.861 Y39.974 E26.36648
G1 X136.360 Y42.000 E26.55625
G1 X135.861 Y44.026 E26.74603
G1 X134.477 Y45.589 E26.93580
G1 X132.526 Y46.329 E27.12558
G1 X130.454 Y46.077 E27.31535
G1 X128.813 Y44.945 E27.49660
G1 X128.116 Y44.967 F3900.000
G1 X128.112 Y45.046 F3900.000
G1 X127.141 Y43.198 E27.68645 F540.000
G1 X127.141 Y40.802 E27.90424
G1 X128.254 Y38.682 E28.12203
G1 X130.226 Y37.321 E28.33982
G1 X132.603 Y37.032 E28.55759
G1 X134.843 Y37.882 E28.77539
G1 X136.431 Y39.674 E28.99317
G1 X137.004 Y42.000 E29.21095
G1 X136.431 Y44.326 E29.42874
G1 X134.843 Y46.118 E29.64652
G1 X132.603 Y46.968 E29.86431
G1 X130.226 Y46.679 E30.08209
G1 X128.254 Y45.318 E30.29987
G1 X128.155 Y45.129 E30.31929
G1 X127.558 Y45.337 F3900.000
G1 X126.516 Y43.352 E30.52314 F540.000
G1 X126.516 Y40.648 E30.76895
G1 X127.773 Y38.255 E31.01475
G1 X129.997 Y36.719 E31.26055
G1 X132.681 Y36.394 E31.50633
G1 X135.208 Y37.352 E31.75214
G1 X137.001 Y39.375 E31.99792
G1 X137.648 Y42.000 E32.24372
G1 X137.001 Y44.625 E32.48952
G1 X135.208 Y46.648 E32.73531
G1 X132.681 Y47.606 E32.98111
G1 X129.997 Y47.281 E33.22690
G1 X127.773 Y45.745 E33.47269
G1 X127.602 Y45.420 E33.50611
G1 X127.005 Y45.627 F3900.000
G1 X125.892 Y43.506 E33.72397 F540.000
G1 X125.892 Y40.494 E33.99780
G1 X127.291 Y37.828 E34.27160
G1 X129.769 Y36.118 E34.54541
G1 X132.758 Y35.755 E34.81921
G1 X135.574 Y36.822 E35.09302
G1 X137.571 Y39.076 E35.36682
G1 X138.291 Y42.000 E35.64062
G1 X137.571 Y44.924 E35.91443
G1 X135.574 Y47.178 E36.18823
G1 X132.758 Y48.245 E36.46205
G1 X129.769 Y47.882 E36.73584
G1 X127.291 Y46.172 E37.00965
G1 X127.049 Y45.710 E37.05707
G1 X46.360 Y42.000 F3900.000
G1 X45.861 Y44.026 E37.24685 F540.000
G1 X44.477 Y45.589 E37.43662
G1 X42.526 Y46.329 E37.62640
G1 X40.454 Y46.077 E37.81617
G1 X38.736 Y44.892 E38.00594
G1 X37.766 Y43.044 E38.19572
G1 X37.766 Y40.956 E38.38550
G1 X38.736 Y39.108 E38.57528
G1 X40.454 Y37.923 E38.76505
G1 X42.526 Y37.671 E38.95482
G1 X44.477 Y38.411 E39.14460
G1 X45.861 Y39.974 E39.33437
G1 X46.338 Y41.909 E39.51563
G1 X46.875 Y42.355 F3900.000
G1 X46.931 Y42.298 F3900.000
G1 X46.431 Y44.326 E39.70547 F540.000
G1 X44.843 Y46.118 E39.92325
G1 X42.603 Y46.968 E40.14104
G1 X40.226 Y46.679 E40.35882
G1 X38.254 Y45.318 E40.57660
G1 X37.141 Y43.198 E40.79439
G1 X37.141 Y40.802 E41.01219
G1 X38.254 Y38.682 E41.22997
G1 X40.226 Y37.321 E41.44776
G1 X42.603 Y37.032 E41.66554
G1 X44.843 Y37.882 E41.88333
G1 X46.431 Y39.674 E42.10111
G1 X47.004 Y42.000 E42.31889
G1 X46.953 Y42.207 E42.33831
G1 X47.537 Y42.448 F3900.000
G1 X47.001 Y44.625 E42.54216 F540.000
G1 X45.208 Y46.648 E42.78795
G1 X42.681 Y47.606 E43.03375
G1 X39.997 Y47.281 E43.27954
G1 X37.773 Y45.745 E43.52534
G1 X36.516 Y43.352 E43.77113
G1 X36.516 Y40.648 E44.01694
G1 X37.773 Y38.255 E44.26274
G1 X39.997 Y36.719 E44.50853
G1 X42.681 Y36.394 E44.75432
G1 X45.208 Y37.352 E45.00012
G1 X47.001 Y39.375 E45.24591
G1 X47.648 Y42.000 E45.49171
G1 X47.560 Y42.357 E45.52514
G1 X48.144 Y42.597 F3900.000
G1 X47.571 Y44.924 E45.74299 F540.000
G1 X45.574 Y47.178 E46.01679
G1 X42.758 Y48.245 E46.29060
G1 X39.769 Y47.882 E46.56440
G1 X37.291 Y46.172 E46.83820
G1 X35.892 Y43.506 E47.11201
G1 X35.892 Y40.494 E47.38583
G1 X37.291 Y37.828 E47.65964
G1 X39.769 Y36.118 E47.93344
G1 X42.758 Y35.755 E48.20724
G1 X45.574 Y36.822 E48.48105
G1 X47.571 Y39.076 E48.75485
G1 X48.291 Y42.000 E49.02866
G1 X48.166 Y42.506 E49.07609
G1 X42.526 Y127.671 F3900.000
G1 X44.477 Y128.411 E49.26587 F540.000
G1 X45.861 Y129.974 E49.45564
G1 X46.360 Y132.000 E49.64542
G1 X45.861 Y134.026 E49.83520
G1 X44.477 Y135.589 E50.02496
G1 X42.526 Y136.329 E50.21475
G1 X40.454 Y136.077 E50.40452
G1 X38.736 Y134.892 E50.59429
G1 X37.766 Y133.044 E50.78407
G1 X37.766 Y130.956 E50.97385
G1 X38.736 Y129.108 E51.16363
G1 X40.454 Y127.923 E51.35340
G1 X42.433 Y127.683 E51.53465
G1 X42.940 Y127.204 F3900.000
G1 X42.603 Y127.032 F3900.000
G1 X44.843 Y127.882 E51.75244 F540.000
G1 X46.431 Y129.674 E51.97022
G1 X47.004 Y132.000 E52.18800
G1 X46.431 Y134.326 E52.40579
G1 X44.843 Y136.118 E52.62357
G1 X42.603 Y136.968 E52.84136
G1 X40.226 Y136.679 E53.05914
G1 X38.254 Y135.318 E53.27693
G1 X37.141 Y133.198 E53.49471
G1 X37.141 Y130.802 E53.71251
G1 X38.254 Y128.682 E53.93029
G1 X40.226 Y127.321 E54.14808
G1 X42.510 Y127.044 E54.35733
G1 X42.223 Y126.449 F3900.000
G1 X42.681 Y126.394 E54.39928 F540.000
G1 X45.208 Y127.352 E54.64508
G1 X47.001 Y129.375 E54.89087
G1 X47.648 Y132.000 E55.13667
G1 X47.001 Y134.625 E55.38246
G1 X45.208 Y136.648 E55.62825
G1 X42.681 Y137.606 E55.87406
G1 X39.997 Y137.281 E56.11984
G1 X37.773 Y135.745 E56.36564
G1 X36.516 Y133.352 E56.61143
G1 X36.516 Y130.648 E56.85724
G1 X37.773 Y128.255 E57.10304
G1 X39.997 Y126.719 E57.34883
G1 X42.130 Y126.460 E57.54416
G1 X42.148 Y125.829 F3900.000
G1 X42.758 Y125.755 E57.60010 F540.000
G1 X45.574 Y126.822 E57.87391
G1 X47.571 Y129.076 E58.14771
G1 X48.291 Y132.000 E58.42152
G1 X47.571 Y134.924 E58.69533
G1 X45.574 Y137.178 E58.96913
G1 X42.758 Y138.245 E59.24294
G1 X39.769 Y137.882 E59.51674
G1 X37.291 Y136.172 E59.79054
G1 X35.892 Y133.506 E60.06435
G1 X35.892 Y130.494 E60.33817
G1 X37.291 Y127.828 E60.61198
G1 X39.769 Y126.118 E60.88578
G1 X42.054 Y125.840 E61.09511
G1 X133.242 Y139.332 F3900.000
G1 X133.220 Y139.310 E61.09800 F1080.000
G1 X133.548 Y138.754 E61.15677
G1 X134.127 Y139.332 E61.23122
G1 X134.189 Y138.511 E61.30621
G1 X135.011 Y139.332 E61.41196
G1 X135.895 Y139.332 E61.49245
G1 X134.588 Y138.025 E61.66067
G1 X135.230 Y137.782 E61.72308
G1 X136.780 Y139.332 E61.92260
G1 X137.664 Y139.332 E62.00309
G1 X135.857 Y137.526 E62.23561
G1 X136.273 Y137.057 E62.29263
G1 X138.549 Y139.332 E62.58551
G1 X139.332 Y139.231 E62.65740
G1 X136.688 Y136.588 E62.99766
G1 X137.104 Y136.119 E63.05468
G1 X139.332 Y138.347 E63.34147
G1 X139.332 Y137.463 E63.42195
G1 X137.519 Y135.650 E63.65528
G1 X137.935 Y135.181 E63.71229
G1 X139.332 Y136.578 E63.89214
G1 X139.332 Y135.694 E63.97263
G1 X138.133 Y134.494 E64.12701
G1 X138.308 Y133.785 E64.19351
G1 X139.332 Y134.809 E64.32538
G1 X139.332 Y133.925 E64.40587
G1 X138.483 Y133.075 E64.51523
G1 X139.311 Y133.019 E64.59078
G1 X139.332 Y133.040 E64.59354
G1 X138.457 Y130.820 F3900.000
G1 X138.693 Y131.056 E64.62397 F1080.000
G1 X139.332 Y130.809 E64.68652
G1 X138.167 Y129.644 E64.83689
G1 X139.332 Y126.376 F3900.000
G1 X47.624 Y34.668 E76.66778 F1080.000
G1 X46.737 Y34.668 E76.74866
G1 X139.332 Y127.263 E88.69392
G1 X139.332 Y128.150 E88.77480
G1 X45.850 Y34.668 E100.83443
G1 X44.964 Y34.668 E100.91530
G1 X139.332 Y129.036 E113.08931
G1 X139.332 Y129.923 E113.17018
G1 X44.077 Y34.668 E125.45856
G1 X43.219 Y34.696 E125.53693
G1 X44.443 Y35.920 E125.69485
G1 F1800.000 E124.69485
G92 E0
G1 X36.599 Y45.807 F3900.000
G1 E1.00000 F1800.000
G1 X34.668 Y43.876 E1.24918 F1080.000
G1 X34.668 Y44.762 E1.33005
G1 X129.238 Y139.332 E13.53008
G1 X128.351 Y139.332 E13.61095
G1 X34.668 Y45.649 E25.69661
G1 X34.668 Y46.535 E25.77748
G1 X127.465 Y139.332 E37.74878
G1 X126.578 Y139.332 E37.82965
G1 X34.668 Y47.422 E49.68657
G1 X34.668 Y48.308 E49.76744
G1 X125.692 Y139.332 E61.50999
G1 X124.805 Y139.332 E61.59087
G1 X34.668 Y49.195 E73.21905
G1 X34.668 Y50.082 E73.29992
G1 X123.918 Y139.332 E84.81373
G1 X123.032 Y139.332 E84.89460
G1 X34.668 Y50.968 E96.29404
G1 X34.668 Y51.855 E96.37492
G1 X122.145 Y139.332 E107.65999
G1 X121.259 Y139.332 E107.74086
G1 X34.668 Y52.741 E118.91156
G1 X34.668 Y53.628 E118.99243
G1 X120.372 Y139.332 E130.04876
G1 X119.486 Y139.332 E130.12964
G1 X34.668 Y54.514 E141.07160
G1 X34.668 Y55.401 E141.15247
G1 X118.599 Y139.332 E151.98006
G1 X117.713 Y139.332 E152.06093
G1 X34.668 Y56.287 E162.77416
G1 X34.668 Y57.174 E162.85503
G1 X116.826 Y139.332 E173.45388
G1 X115.939 Y139.332 E173.53475
G1 X34.668 Y58.060 E184.01923
G1 X34.668 Y58.947 E184.10011
G1 X115.053 Y139.332 E194.47022
G1 X114.166 Y139.332 E194.55109
G1 X34.668 Y59.834 E204.80683
G1 X34.668 Y60.720 E204.88770
G1 X113.280 Y139.332 E215.02907
G1 X112.393 Y139.332 E215.10995
G1 X34.668 Y61.607 E225.13695
G1 X34.668 Y62.493 E225.21782
G1 X111.507 Y139.332 E235.13045
G1 X110.620 Y139.332 E235.21132
G1 X34.668 Y63.380 E245.00959
G1 X34.668 Y64.266 E245.09046
G1 X109.734 Y139.332 E254.77435
G1 X108.847 Y139.332 E254.85522
G1 X34.668 Y65.153 E264.42474
G1 X34.668 Y66.039 E264.50562
G1 X107.961 Y139.332 E273.96077
G1 X107.074 Y139.332 E274.04164
G1 X34.668 Y66.926 E283.38242
G1 X34.668 Y67.813 E283.46329
G1 X106.187 Y139.332 E292.68971
G1 X105.301 Y139.332 E292.77058
G1 X34.668 Y68.699 E301.88262
G1 X34.668 Y69.586 E301.96349
G1 X104.414 Y139.332 E310.96116
G1 X103.528 Y139.332 E311.04204
G1 X34.668 Y70.472 E319.92534
G1 X34.668 Y71.359 E320.00621
G1 X102.641 Y139.332 E328.77514
G1 X101.755 Y139.332 E328.85601
G1 X34.668 Y72.245 E337.51058
G1 X34.668 Y73.132 E337.59145
G1 X100.868 Y139.332 E346.13164
G1 X99.982 Y139.332 E346.21251
G1 X34.668 Y74.018 E354.63834
G1 X34.668 Y74.905 E354.71921
G1 X99.095 Y139.332 E363.03066
G1 X98.208 Y139.332 E363.11153
G1 X34.668 Y75.792 E371.30861
G1 X34.668 Y76.678 E371.38949
G1 X97.322 Y139.332 E379.47220
