; generated by Slic3r 1.0.1 on 2014-05-28 at 18:54:57

; layer_height = 0.25
; perimeters = 4
; top_solid_layers = 3
; bottom_solid_layers = 3
; fill_density = 0.33
; perimeter_speed = 23
; infill_speed = 46
; travel_speed = 65
; nozzle_diameter = 0.35
; filament_diameter = 1.75
; extrusion_multiplier = 1
; perimeters extrusion width = 0.35mm
; infill extrusion width = 0.39mm
; solid infill extrusion width = 0.39mm
; top infill extrusion width = 0.39mm
; support material extrusion width = 0.35mm
; first layer extrusion width = 0.70mm

G21 ; set units to millimeters
M107
M190 S110 ; wait for bed temperature to be reached
M104 S230 ; set temperature
G28 ; home all axes
M109 S230 ; wait for temperature to be reached
G90 ; use absolute coordinates
G92 E0
M82 ; use absolute distances for extrusion
G1 F1800.000 E-1.00000
G92 E0
G1 Z0.350 F3900.000
G1 X28.320 Y36.240 F3900.000
G1 E1.00000 F1800.000
G1 X29.460 Y35.630 E1.11757 F414.000
G1 X30.710 Y35.250 E1.23636
G1 X32.000 Y35.130 E1.35417
G1 X142.000 Y35.130 E11.35642
G1 X143.290 Y35.250 E11.47423
G1 X144.540 Y35.630 E11.59303
G1 X145.680 Y36.240 E11.71059
G1 X146.680 Y37.070 E11.82876
G1 X147.510 Y38.070 E11.94693
G1 X148.120 Y39.210 E12.06450
G1 X148.500 Y40.460 E12.18330
G1 X148.620 Y41.750 E12.30110
G1 X148.620 Y132.250 E20.53023
G1 X148.500 Y133.530 E20.64713
G1 X148.130 Y134.770 E20.76480
G1 X147.530 Y135.900 E20.88113
G1 X146.710 Y136.900 E20.99873
G1 X145.720 Y137.730 E21.11620
G1 X144.590 Y138.350 E21.23340
G1 X143.370 Y138.730 E21.34959
G1 X137.390 Y139.990 E21.90529
G1 X136.710 Y140.100 E21.96792
G1 X136.020 Y140.130 E22.03072
G1 X37.960 Y140.130 E30.94728
G1 X37.270 Y140.100 E31.01008
G1 X36.590 Y139.990 E31.07271
G1 X30.630 Y138.730 E31.62663
G1 X29.400 Y138.340 E31.74396
G1 X28.270 Y137.730 E31.86073
G1 X27.280 Y136.900 E31.97820
G1 X26.470 Y135.900 E32.09522
G1 X25.870 Y134.760 E32.21236
G1 X25.500 Y133.530 E32.32915
G1 X25.380 Y132.250 E32.44605
G1 X25.380 Y41.750 E40.67518
G1 X25.500 Y40.460 E40.79299
G1 X25.880 Y39.210 E40.91178
G1 X26.490 Y38.070 E41.02935
G1 X27.320 Y37.070 E41.14752
G1 X28.248 Y36.300 E41.25717
G1 F1800.000 E40.25717
G92 E0
G1 X31.871 Y41.438 F3900.000
G1 E1.00000 F1800.000
G1 X142.129 Y41.438 E11.02579 F414.000
G1 X142.312 Y41.621 E11.04933
G1 X142.312 Y84.379 E14.93737
G1 X142.129 Y84.562 E14.96090
G1 X137.058 Y84.562 E15.42204
G1 X136.692 Y84.928 E15.46912
G1 X136.692 Y85.995 E15.56609
G1 X136.509 Y86.178 E15.58963
G1 X127.481 Y86.178 E16.41053
G1 X127.298 Y85.995 E16.43406
G1 X127.298 Y84.928 E16.53104
G1 X126.932 Y84.562 E16.57811
G1 X47.058 Y84.562 E23.84101
G1 X46.692 Y84.928 E23.88809
G1 X46.692 Y85.995 E23.98506
G1 X46.509 Y86.178 E24.00859
G1 X37.481 Y86.178 E24.82950
G1 X37.298 Y85.995 E24.85303
G1 X37.298 Y84.928 E24.95001
G1 X36.932 Y84.562 E24.99708
G1 X31.871 Y84.562 E25.45731
G1 X31.688 Y84.379 E25.48084
G1 X31.688 Y41.621 E29.36889
G1 X31.804 Y41.504 E29.38390
G1 F1800.000 E28.38390
G92 E0
G1 X31.871 Y89.438 F3900.000
G1 E1.00000 F1800.000
G1 X142.129 Y89.438 E11.02579 F414.000
G1 X142.312 Y89.621 E11.04933
G1 X142.312 Y132.379 E14.93737
G1 X142.129 Y132.562 E14.96091
G1 X137.058 Y132.562 E15.42204
G1 X136.692 Y132.928 E15.46912
G1 X136.692 Y133.995 E15.56609
G1 X136.509 Y134.178 E15.58963
G1 X127.481 Y134.178 E16.41053
G1 X127.298 Y133.995 E16.43406
G1 X127.298 Y132.928 E16.53104
G1 X126.932 Y132.562 E16.57811
G1 X47.058 Y132.562 E23.84101
G1 X46.692 Y132.928 E23.88809
G1 X46.692 Y133.995 E23.98506
G1 X46.509 Y134.178 E24.00859
G1 X37.481 Y134.178 E24.82950
G1 X37.298 Y133.995 E24.85303
G1 X37.298 Y132.928 E24.95001
G1 X36.932 Y132.562 E24.99708
G1 X31.871 Y132.562 E25.45731
G1 X31.688 Y132.379 E25.48084
G1 X31.688 Y89.621 E29.36889
G1 X31.804 Y89.504 E29.38390
G1 F1800.000 E28.38390
G92 E0
G1 X32.350 Y83.900 F3900.000
G1 E1.00000 F1800.000
G1 X32.350 Y42.100 E4.80086 F289.800
G1 X141.650 Y42.100 E14.73946
G1 X141.650 Y83.900 E18.54032
G1 X32.444 Y83.900 E28.47040
G1 X32.662 Y83.359 F3900.000
G1 X32.975 Y83.275 F3900.000
G1 X32.975 Y42.725 E32.15761 F414.000
G1 X141.025 Y42.725 E41.98257
G1 X141.025 Y83.275 E45.66979
G1 X33.069 Y83.275 E55.48623
G1 X33.600 Y82.650 F3900.000
G1 X33.600 Y43.350 E59.05980 F414.000
G1 X140.400 Y43.350 E68.77112
G1 X140.400 Y82.650 E72.34469
G1 X33.694 Y82.650 E82.04749
G1 X34.225 Y82.025 F3900.000
G1 X34.225 Y43.975 E85.50742 F414.000
G1 X139.775 Y43.975 E95.10510
G1 X139.775 Y82.025 E98.56503
G1 X34.318 Y82.025 E108.15418
G1 X40.938 Y66.404 F3900.000
G1 X39.023 Y65.482 E108.34737 F540.000
G1 X37.699 Y63.821 E108.54057
G1 X37.226 Y61.750 E108.73376
G1 X37.699 Y59.679 E108.92695
G1 X39.023 Y58.018 E109.12015
G1 X40.938 Y57.096 E109.31334
G1 X43.062 Y57.096 E109.50652
G1 X44.977 Y58.018 E109.69972
G1 X46.301 Y59.679 E109.89291
G1 X46.774 Y61.750 E110.08610
G1 X46.301 Y63.821 E110.27929
G1 X44.977 Y65.482 E110.47249
G1 X43.062 Y66.404 E110.66568
G1 X41.031 Y66.404 E110.85034
G1 X40.480 Y66.829 F3900.000
G1 X40.533 Y66.903 F3900.000
G1 X38.624 Y65.984 E111.04299 F540.000
G1 X37.121 Y64.099 E111.26212
G1 X36.585 Y61.750 E111.48125
G1 X37.121 Y59.401 E111.70038
G1 X38.624 Y57.516 E111.91951
G1 X39.953 Y56.877 E112.05361
G1 X40.795 Y56.471 E112.13864
G1 X43.205 Y56.471 E112.35777
G1 X45.376 Y57.516 E112.57690
G1 X46.879 Y59.401 E112.79603
G1 X47.415 Y61.750 E113.01516
G1 X46.879 Y64.099 E113.23429
G1 X45.376 Y65.984 E113.45342
G1 X43.205 Y67.029 E113.67255
G1 X40.795 Y67.029 E113.89168
G1 X40.617 Y66.943 E113.90964
G1 X40.262 Y67.466 F3900.000
G1 X38.224 Y66.485 E114.11525 F540.000
G1 X36.544 Y64.378 E114.36032
G1 X35.944 Y61.750 E114.60539
G1 X36.544 Y59.122 E114.85046
G1 X38.224 Y57.015 E115.09553
G1 X39.328 Y56.484 E115.20689
G1 X40.652 Y55.846 E115.34060
G1 X43.348 Y55.846 E115.58566
G1 X45.776 Y57.015 E115.83073
G1 X47.456 Y59.122 E116.07580
G1 X48.056 Y61.750 E116.32087
G1 X47.456 Y64.378 E116.56594
G1 X45.776 Y66.485 E116.81101
G1 X43.348 Y67.654 E117.05608
G1 X40.652 Y67.654 E117.30114
G1 X40.346 Y67.506 E117.33207
G1 X39.990 Y68.029 F3900.000
G1 X37.825 Y66.986 E117.55065 F414.000
G1 X35.966 Y64.656 E117.82166
G1 X35.303 Y61.750 E118.09267
G1 X35.966 Y58.844 E118.36367
G1 X37.825 Y56.514 E118.63468
G1 X38.703 Y56.091 E118.72331
G1 X40.510 Y55.221 E118.90569
G1 X43.490 Y55.221 E119.17669
G1 X46.175 Y56.514 E119.44769
G1 X48.034 Y58.844 E119.71870
G1 X48.697 Y61.750 E119.98971
G1 X48.034 Y64.656 E120.26071
G1 X46.175 Y66.986 E120.53172
G1 X43.490 Y68.279 E120.80273
G1 X40.510 Y68.279 E121.07373
G1 X40.075 Y68.069 E121.11763
G1 X127.226 Y61.750 F3900.000
G1 X127.699 Y59.679 E121.31082 F540.000
G1 X129.023 Y58.018 E121.50402
G1 X130.938 Y57.096 E121.69721
G1 X133.062 Y57.096 E121.89040
G1 X134.977 Y58.018 E122.08359
G1 X136.301 Y59.679 E122.27678
G1 X136.774 Y61.750 E122.46998
G1 X136.301 Y63.821 E122.66317
G1 X134.977 Y65.482 E122.85636
G1 X133.062 Y66.404 E123.04955
G1 X130.938 Y66.404 E123.24274
G1 X129.023 Y65.482 E123.43593
G1 X127.699 Y63.821 E123.62913
G1 X127.247 Y61.841 E123.81380
G1 X126.710 Y61.398 F3900.000
G1 X126.585 Y61.750 F3900.000
G1 X127.121 Y59.401 E124.03293 F540.000
G1 X128.624 Y57.516 E124.25206
G1 X130.795 Y56.471 E124.47119
G1 X133.205 Y56.471 E124.69031
G1 X135.376 Y57.516 E124.90944
G1 X136.879 Y59.401 E125.12858
G1 X137.415 Y61.750 E125.34771
G1 X136.879 Y64.099 E125.56684
G1 X135.376 Y65.984 E125.78597
G1 X133.205 Y67.029 E126.00510
G1 X130.795 Y67.029 E126.22422
G1 X128.624 Y65.984 E126.44335
G1 X127.121 Y64.099 E126.66249
G1 X126.606 Y61.841 E126.87309
G1 X125.944 Y61.750 F3900.000
G1 X126.544 Y59.122 E127.11816 F540.000
G1 X128.224 Y57.015 E127.36323
G1 X130.652 Y55.846 E127.60830
G1 X133.348 Y55.846 E127.85336
G1 X135.776 Y57.015 E128.09843
G1 X137.456 Y59.122 E128.34350
G1 X138.056 Y61.750 E128.58857
G1 X137.456 Y64.378 E128.83364
G1 X135.776 Y66.485 E129.07871
G1 X133.348 Y67.654 E129.32378
G1 X130.652 Y67.654 E129.56884
G1 X128.224 Y66.485 E129.81391
G1 X126.544 Y64.378 E130.05898
G1 X125.965 Y61.841 E130.29552
G1 X125.303 Y61.750 F3900.000
G1 X125.966 Y58.844 E130.56653 F414.000
G1 X127.825 Y56.514 E130.83754
G1 X130.510 Y55.221 E131.10854
G1 X133.490 Y55.221 E131.37954
G1 X136.175 Y56.514 E131.65055
G1 X138.034 Y58.844 E131.92156
G1 X138.697 Y61.750 E132.19256
G1 X138.034 Y64.656 E132.46357
G1 X136.175 Y66.986 E132.73458
G1 X133.490 Y68.279 E133.00558
G1 X130.510 Y68.279 E133.27659
G1 X127.825 Y66.986 E133.54759
G1 X125.966 Y64.656 E133.81860
G1 X125.324 Y61.841 E134.08108
G1 X125.404 Y64.185 F3900.000
G1 X105.637 Y44.418 E136.63005 F1080.000
G1 X106.524 Y44.418 E136.71086
G1 X125.142 Y63.036 E139.11176
G1 X124.880 Y61.888 E139.21915
G1 X107.410 Y44.418 E141.47199
G1 X108.296 Y44.418 E141.55279
G1 X124.994 Y61.115 E143.70597
G1 X125.158 Y60.394 E143.77345
G1 X109.182 Y44.418 E145.83359
G1 X110.068 Y44.418 E145.91439
G1 X125.323 Y59.672 E147.88149
G1 X125.488 Y58.951 E147.94897
G1 X110.955 Y44.418 E149.82302
G1 X111.841 Y44.418 E149.90383
G1 X125.785 Y58.362 E151.70191
G1 X126.178 Y57.869 E151.75941
G1 X112.727 Y44.418 E153.49392
G1 X113.613 Y44.418 E153.57472
G1 X126.571 Y57.376 E155.24566
G1 X126.964 Y56.883 E155.30316
G1 X114.499 Y44.418 E156.91052
G1 X115.385 Y44.418 E156.99132
G1 X127.357 Y56.390 E158.53511
G1 X127.860 Y56.006 E158.59275
G1 X116.272 Y44.418 E160.08703
G1 X117.158 Y44.418 E160.16783
G1 X128.458 Y55.718 E161.62496
G1 X129.056 Y55.430 E161.68550
G1 X118.044 Y44.418 E163.10549
G1 X118.930 Y44.418 E163.18629
G1 X129.654 Y55.141 E164.56913
G1 X130.252 Y54.853 E164.62967
G1 X119.816 Y44.418 E165.97537
G1 X120.703 Y44.418 E166.05617
G1 X131.063 Y54.778 E167.39215
G1 X131.949 Y54.778 E167.47295
G1 X121.589 Y44.418 E168.80893
G1 X122.475 Y44.418 E168.88973
G1 X132.835 Y54.778 E170.22571
G1 X133.842 Y54.899 F3900.000
G1 X123.361 Y44.418 E171.57727 F1080.000
G1 X124.247 Y44.418 E171.65807
G1 X135.552 Y55.722 E173.11578
G1 X139.332 Y58.617 F3900.000
G1 X125.133 Y44.418 E174.94674 F1080.000
G1 X126.020 Y44.418 E175.02754
G1 X139.332 Y57.730 E176.74423
G1 X139.332 Y56.844 E176.82503
G1 X126.906 Y44.418 E178.42744
G1 X127.792 Y44.418 E178.50825
G1 X139.332 Y55.958 E179.99638
G1 X139.332 Y55.072 E180.07719
G1 X128.678 Y44.418 E181.45105
G1 X129.564 Y44.418 E181.53185
G1 X139.332 Y54.186 E182.79144
G1 X139.332 Y53.299 E182.87224
G1 X130.451 Y44.418 E184.01756
G1 X131.337 Y44.418 E184.09836
G1 X139.332 Y52.413 E185.12940
G1 X139.332 Y51.527 E185.21020
G1 X132.223 Y44.418 E186.12697
G1 X133.109 Y44.418 E186.20777
G1 X139.332 Y50.641 E187.01026
G1 X139.332 Y49.755 E187.09107
G1 X133.995 Y44.418 E187.77928
G1 X134.881 Y44.418 E187.86008
G1 X139.332 Y48.869 E188.43403
G1 X139.332 Y47.982 E188.51483
G1 X135.768 Y44.418 E188.97450
G1 X136.654 Y44.418 E189.05530
G1 X139.332 Y47.096 E189.40069
G1 X139.332 Y46.210 E189.48150
G1 X137.540 Y44.418 E189.71261
G1 X138.426 Y44.418 E189.79342
G1 X139.332 Y45.324 E189.91026
G1 X139.332 Y44.438 E189.99106
G1 X139.312 Y44.418 E189.99363
G1 X139.332 Y64.820 F3900.000
G1 X139.129 Y64.616 E190.01990 F1080.000
G1 X138.681 Y65.055 E190.07704
G1 X139.332 Y65.706 E190.16097
G1 X139.332 Y66.592 E190.24177
G1 X138.288 Y65.548 E190.37641
G1 X137.895 Y66.041 E190.43390
G1 X139.332 Y67.478 E190.61924
G1 X139.332 Y68.365 E190.70004
G1 X137.280 Y66.312 E190.96474
G1 X136.886 Y66.805 E191.02224
G1 X139.332 Y69.251 E191.33764
G1 X139.332 Y70.137 E191.41845
G1 X136.493 Y67.298 E191.78455
G1 X135.913 Y67.604 E191.84436
G1 X139.332 Y71.023 E192.28527
G1 X139.332 Y71.909 E192.36607
G1 X135.315 Y67.892 E192.88411
G1 X134.717 Y68.180 E192.94465
G1 X139.332 Y72.795 E193.53982
G1 X139.332 Y73.682 E193.62063
G1 X134.119 Y68.468 E194.29293
G1 X133.486 Y68.722 E194.35505
G1 X139.332 Y74.568 E195.10888
G1 X139.332 Y75.454 E195.18969
G1 X132.600 Y68.722 E196.05779
G1 X131.714 Y68.722 E196.13859
G1 X139.332 Y76.340 E197.12097
G1 X139.332 Y77.226 E197.20177
G1 X130.828 Y68.722 E198.29842
G1 X129.508 Y68.288 E198.42511
G1 X139.332 Y78.113 E199.69197
G1 X139.332 Y78.999 E199.77278
G1 X104.751 Y44.418 E204.23205
G1 X103.865 Y44.418 E204.31285
G1 X139.332 Y79.885 E208.88640
G1 X139.332 Y80.771 E208.96720
G1 X102.979 Y44.418 E213.65502
G1 X102.093 Y44.418 E213.73583
G1 X139.257 Y81.582 E218.52825
G1 X138.371 Y81.582 E218.60906
G1 X101.207 Y44.418 E223.40148
G1 X100.320 Y44.418 E223.48228
G1 X137.485 Y81.582 E228.27471
G1 X136.599 Y81.582 E228.35551
G1 X99.434 Y44.418 E233.14793
G1 X98.548 Y44.418 E233.22874
G1 X135.713 Y81.582 E238.02116
G1 X134.826 Y81.582 E238.10197
G1 X97.662 Y44.418 E242.89439
G1 X96.776 Y44.418 E242.97519
G1 X133.940 Y81.582 E247.76762
G1 X133.054 Y81.582 E247.84842
G1 X95.889 Y44.418 E252.64084
G1 X95.003 Y44.418 E252.72165
G1 X132.168 Y81.582 E257.51407
G1 X131.282 Y81.582 E257.59488
G1 X94.117 Y44.418 E262.38730
G1 X93.231 Y44.418 E262.46810
G1 X130.395 Y81.582 E267.26053
G1 X129.509 Y81.582 E267.34133
G1 X92.345 Y44.418 E272.13375
G1 X91.458 Y44.418 E272.21456
G1 X128.623 Y81.582 E277.00698
G1 X127.737 Y81.582 E277.08779
G1 X90.572 Y44.418 E281.88021
G1 X89.686 Y44.418 E281.96101
G1 X126.851 Y81.582 E286.75344
G1 X125.965 Y81.582 E286.83424
G1 X88.800 Y44.418 E291.62667
G1 X87.914 Y44.418 E291.70747
G1 X125.078 Y81.582 E296.49989
G1 X124.192 Y81.582 E296.58070
G1 X87.028 Y44.418 E301.37312
G1 X86.141 Y44.418 E301.45392
G1 X123.306 Y81.582 E306.24635
G1 X122.420 Y81.582 E306.32715
G1 X85.255 Y44.418 E311.11958
G1 X84.369 Y44.418 E311.20038
G1 X121.534 Y81.582 E315.99280
G1 X120.647 Y81.582 E316.07361
G1 X83.483 Y44.418 E320.86603
G1 X82.597 Y44.418 E320.94684
G1 X119.761 Y81.582 E325.73926
G1 X118.875 Y81.582 E325.82006
G1 X81.710 Y44.418 E330.61249
G1 X80.824 Y44.418 E330.69329
G1 X117.989 Y81.582 E335.48571
G1 X117.103 Y81.582 E335.56652
G1 X79.938 Y44.418 E340.35894
G1 X79.052 Y44.418 E340.43975
G1 X116.217 Y81.582 E345.23217
G1 X115.330 Y81.582 E345.31297
G1 X78.166 Y44.418 E350.10540
G1 X77.280 Y44.418 E350.18620
G1 X114.444 Y81.582 E354.97862
G1 X113.558 Y81.582 E355.05943
G1 X76.393 Y44.418 E359.85185
G1 X75.507 Y44.418 E359.93266
G1 X112.672 Y81.582 E364.72508
G1 X111.786 Y81.582 E364.80588
G1 X74.621 Y44.418 E369.59831
G1 X73.735 Y44.418 E369.67911
G1 X110.899 Y81.582 E374.47153
G1 X110.013 Y81.582 E374.55234
G1 X72.849 Y44.418 E379.34476
G1 X71.962 Y44.418 E379.42557
G1 X109.127 Y81.582 E384.21799
G1 X108.241 Y81.582 E384.29879
G1 X71.076 Y44.418 E389.09122
G1 X70.190 Y44.418 E389.17202
G1 X107.355 Y81.582 E393.96444
G1 X106.469 Y81.582 E394.04525
G1 X69.304 Y44.418 E398.83767
G1 X68.418 Y44.418 E398.91848
G1 X105.582 Y81.582 E403.71090
G1 X104.696 Y81.582 E403.79170
G1 X67.532 Y44.418 E408.58413
G1 X66.645 Y44.418 E408.66493
G1 X103.810 Y81.582 E413.45736
G1 X102.924 Y81.582 E413.53816
G1 X65.759 Y44.418 E418.33058
G1 X64.873 Y44.418 E418.41139
G1 X102.038 Y81.582 E423.20381
G1 X101.151 Y81.582 E423.28461
G1 X63.987 Y44.418 E428.07704
G1 X63.101 Y44.418 E428.15784
G1 X100.265 Y81.582 E432.95027
G1 X99.379 Y81.582 E433.03107
G1 X62.214 Y44.418 E437.82349
G1 X61.328 Y44.418 E437.90430
G1 X98.493 Y81.582 E442.69672
G1 X97.607 Y81.582 E442.77752
G1 X60.442 Y44.418 E447.56995
G1 X59.556 Y44.418 E447.65075
G1 X96.721 Y81.582 E452.44318
G1 X95.834 Y81.582 E452.52398
G1 X58.670 Y44.418 E457.31640
G1 X57.784 Y44.418 E457.39721
G1 X94.948 Y81.582 E462.18963
G1 X94.062 Y81.582 E462.27044
G1 X56.897 Y44.418 E467.06286
G1 X56.011 Y44.418 E467.14366
G1 X93.176 Y81.582 E471.93609
G1 X92.290 Y81.582 E472.01689
G1 X55.125 Y44.418 E476.80931
G1 X54.239 Y44.418 E476.89012
G1 X91.403 Y81.582 E481.68254
G1 X90.517 Y81.582 E481.76335
G1 X53.353 Y44.418 E486.55577
G1 X52.466 Y44.418 E486.63657
G1 X89.631 Y81.582 E491.42900
G1 X88.745 Y81.582 E491.50980
G1 X51.580 Y44.418 E496.30222
G1 X50.694 Y44.418 E496.38303
G1 X87.859 Y81.582 E501.17545
G1 X86.972 Y81.582 E501.25626
G1 X49.808 Y44.418 E506.04868
G1 X48.922 Y44.418 E506.12948
G1 X86.086 Y81.582 E510.92191
G1 X85.200 Y81.582 E511.00271
G1 X48.036 Y44.418 E515.79513
G1 X47.149 Y44.418 E515.87594
G1 X84.314 Y81.582 E520.66836
G1 X83.428 Y81.582 E520.74917
G1 X46.263 Y44.418 E525.54159
G1 X45.377 Y44.418 E525.62239
G1 X82.542 Y81.582 E530.41482
